packages/foundations/assets/icons/functional/images/editing/block.svg

<svg xmlns="http://www.w3.org/2000/svg" width="32" height="32" fill="none"><path fill="#1A1C1F" fill-rule="evenodd" d="M14.88 4.054c-2.336.245-4.566 1.131-6.25 2.486-.197.157-.377.287-.401.287-.055 0-1.402 1.347-1.402 1.401 0 .022-.113.178-.25.346-1.029 1.262-1.942 3.196-2.306 4.882a12.01 12.01 0 0 0 6.476 13.322 11.93 11.93 0 0 0 10.506 0c.769-.376 1.635-.917 2.173-1.355.168-.137.325-.25.347-.25.054 0 1.4-1.348 1.4-1.401 0-.022.113-.178.25-.346.438-.538.979-1.404 1.355-2.173a11.97 11.97 0 0 0-1.427-12.761 12.07 12.07 0 0 0-7.591-4.357c-.676-.102-2.254-.146-2.88-.081m3.013 2.13c4.045.811 7.109 3.883 7.929 7.949.109.538.124.768.124 1.867s-.015 1.329-.124 1.867a10 10 0 0 1-.892 2.586c-.353.712-1.039 1.779-1.173 1.824-.028.009-3.206-3.141-7.064-7L9.68 8.261l.16-.133c1.034-.86 2.804-1.663 4.267-1.936.836-.155.845-.156 2.08-.14.899.012 1.235.038 1.706.132m-2.586 10.539 7.013 7.016-.16.133c-.373.31-1.163.804-1.751 1.094-1.578.778-3.388 1.135-5.097 1.006-4.567-.347-8.223-3.591-9.134-8.105-.109-.538-.124-.768-.124-1.867s.015-1.329.124-1.867a10.2 10.2 0 0 1 1.78-4.066c.146-.198.281-.36.3-.36.02 0 3.191 3.157 7.049 7.016"/></svg>

<svg width="32" height="32" viewBox="0 0 32 32" fill="none" xmlns="http://www.w3.org/2000/svg"><path d="M14.880 4.054 C 12.544 4.299,10.314 5.185,8.630 6.540 C 8.433 6.697,8.253 6.827,8.229 6.827 C 8.174 6.827,6.827 8.174,6.827 8.228 C 6.827 8.250,6.714 8.406,6.577 8.574 C 5.548 9.836,4.635 11.770,4.271 13.456 C 3.107 18.854,5.774 24.340,10.747 26.778 C 14.062 28.403,17.936 28.403,21.253 26.778 C 22.022 26.402,22.888 25.861,23.426 25.423 C 23.594 25.286,23.751 25.173,23.773 25.173 C 23.827 25.173,25.173 23.825,25.173 23.772 C 25.173 23.750,25.286 23.594,25.423 23.426 C 25.861 22.888,26.402 22.022,26.778 21.253 C 28.819 17.087,28.264 12.128,25.351 8.492 C 23.477 6.153,20.746 4.586,17.760 4.135 C 17.084 4.033,15.506 3.989,14.880 4.054 M17.893 6.184 C 21.938 6.995,25.002 10.067,25.822 14.133 C 25.931 14.671,25.946 14.901,25.946 16.000 C 25.946 17.099,25.931 17.329,25.822 17.867 C 25.635 18.797,25.368 19.570,24.930 20.453 C 24.577 21.165,23.891 22.232,23.757 22.277 C 23.729 22.286,20.551 19.136,16.693 15.277 L 9.680 8.261 9.840 8.128 C 10.874 7.268,12.644 6.465,14.107 6.192 C 14.943 6.037,14.952 6.036,16.187 6.052 C 17.086 6.064,17.422 6.090,17.893 6.184 M15.307 16.723 L 22.320 23.739 22.160 23.872 C 21.787 24.182,20.997 24.676,20.409 24.966 C 18.831 25.744,17.021 26.101,15.312 25.972 C 10.745 25.625,7.089 22.381,6.178 17.867 C 6.069 17.329,6.054 17.099,6.054 16.000 C 6.054 14.901,6.069 14.671,6.178 14.133 C 6.481 12.630,7.084 11.253,7.958 10.067 C 8.104 9.869,8.239 9.707,8.258 9.707 C 8.278 9.707,11.449 12.864,15.307 16.723 " fill="#1A1C1F" stroke="none" fill-rule="evenodd"></path></svg>
